X:647
T:Earl of Breadalbane's Hermitage, The
B:Beauties of Gow 3 (1819)
Z:Nigel Gatherer
L:1/8
M:4/4
K:Em
e | E/E/E EG B3 ^c | dBAd  FDAF | E/E/E EG B3  g | f^dBd e3 :|
f | g>fef    g>feg | feda  fadf | g>fef    g>feg | f^dBd e3  |
f | g>fef    g>feg | f>eda fadf | gbeg     bgeg  | f^dBd e3 |]
